X:1
T:Uralskaya ryabinushka
T:Uralin pihlaja
T:Ural Rowan Tree
C:from Dena Ressler
C:arr. di bostoner klezmer 5-24-03
M:3/4
L:1/4
Q:1/4=120
K:Dm
A,|"Dm"D2 F|"Dm"A2 F|"Gm"G3|"Dm"D2 E|"Dm"F E F|"A"A2 G|"Dm" D3-|"Dm" D2 A,|\
  "Dm"D2 F|"Dm"A2 F|"Gm"G3|"Dm"D2 E|"Dm"F E F|"C"A2 G|"F" F-|"F" F2 A|
"F"c c c|"F" c B A|"Gm" G3|"Gm" D2 D|"C"E E E|"C"E F G|"F"A3| "F" A/B/ A/G/ F/E/|\
  "Dm"F F F|"Dm"F G A|"Gm"c3 |"Gm"B2 A|"A" G F G|"A"A2 G|"D"D ^F A|"D"D/^F/A/D/^F/A/|
|: "D"d d d|"D7" d2 c|"Gm"c3| "Gm"B3| "C"B B c|"C"d c B|"F"A3| "F" A/B/ A/G/ F/E/| \
"Dm"F F F|"Dm"F G A|"Gm"c3 |"Gm"B2 A|"A" G F G|"A"A2 G|1"D" D3| "D"D/^F/A/D/^F/A/ :|2"Dm"D3-|"Dm"D2 |]
